!!!!SEGMENT: Ver2013-Hesterna_die.krn
!!!id: Ver2013
!!!AGN: Motet
!!!SCT: Slim (1972)
!!!voices: 4
!!!COM: Philippe Verdelot
!!!OTL: Hesterna die
**kern	**kern	**kern	**kern
*part4	*part3	*part2	*part1
*staff4	*staff3	*staff2	*staff1
*I"Bassus	*I"Tenor	*I"Altus	*I"Superius
*I'B	*I'T	*I'A	*I'S
*clefF4	*clefGv2	*clefGv2	*clefG2
*k[b-]	*k[b-]	*k[b-]	*k[b-]
*F:	*F:	*F:	*F:
*M2/1	*M2/1	*M2/1	*M2/1
*met(C|)	*met(C|)	*met(C|)	*met(C|)
!!section: Prima pars: Hesterna die
!!!OMD: Prima pars: Hesterna die
=1	=1	=1	=1
0r	0r	0r	1g
.	.	.	[1b-y
=2	=2	=2	=2
0r	0r	0r	1b-]
.	.	.	1a
=3	=3	=3	=3
0r	0r	1d	0dd
.	.	[1f	.
=4	=4	=4	=4
0r	0r	1f]	1cc
.	.	1e	2r
.	.	.	[2cc
=5	=5	=5	=5
0r	0r	0a	2cc]
.	.	.	2cc
.	.	.	1cc
=6	=6	=6	=6
0r	0r	1g	1dd
.	.	2r	2.ff
.	.	[2f	.
.	.	.	8eeL
.	.	.	8ddJ
=7	=7	=7	=7
0r	0r	2f]	2cc
.	.	2f	1dd
.	.	1f	.
.	.	.	2cc
=8	=8	=8	=8
0r	0r	1g	2ee
.	.	.	2.dd
.	.	[1b-y	.
.	.	.	4cc
.	.	.	4b-y
.	.	.	4a
=9	=9	=9	=9
0r	1G	2b-]	4g
.	.	.	4a
.	.	2.g	4b-y
.	.	.	4cc
.	[1B-y	.	4dd
.	.	4f	4ee
.	.	2d	[2ff
=10	=10	=10	=10
0r	1B-]	2f	4ff]
.	.	.	4ee
.	.	2g	1dd
.	1A	1e	.
.	.	.	2cc#i
=11	=11	=11	=11
1D	0d	2.f	1dd
.	.	4g	.
[1F	.	[1a	1r
=12	=12	=12	=12
1F]	1c	1a]	0r
1E	2r	1g	.
.	[2c	.	.
=13	=13	=13	=13
0A	2c]	0r	0r
.	2c	.	.
.	1c	.	.
=14	=14	=14	=14
1G	1d	0r	0r
2r	2.f	.	.
[2F	.	.	.
.	8eL	.	.
.	8dJ	.	.
=15	=15	=15	=15
2F]	2c	0r	0r
2F	1d	.	.
1F	.	.	.
.	2c	.	.
=16	=16	=16	=16
1G	2e	0r	0r
.	2.d	.	.
[1B-y	.	.	.
.	4c	.	.
.	4B-y	.	.
.	4A	.	.
=17	=17	=17	=17
2B-]	4G	0r	0r
.	4A	.	.
2.G	4B-y	.	.
.	4c	.	.
.	4d	.	.
4F	4e	.	.
2D	[2f	.	.
=18	=18	=18	=18
2F	4f]	0r	0r
.	4e	.	.
2G	1d	.	.
1E	.	.	.
.	2c#i	.	.
=19	=19	=19	=19
1D	1d	1r	0a
1D	1d	1f	.
=20	=20	=20	=20
1.G	1.d	1.g	1.b-y
2G	2d	2g	2b-y
=21	=21	=21	=21
1G	1d	1g	1b-y
1D	[1d	1f	1a
=22	=22	=22	=22
1G	2d]	1g	1b-y
.	2B-y	.	.
1C	1e-i	1g	1cc
=23	=23	=23	=23
1D	2d	1.f	1a
.	2.d	.	.
1BB-y	.	.	1dd
.	4c	.	.
.	4B-y	2f	.
.	4A	.	.
=24	=24	=24	=24
2C	2G	2e	2cc
2D	2F	2.d	1b-y
1E-i	2.G	.	.
.	.	8cL	.
.	.	8B-yJ	.
.	.	2c	4a
.	4A	.	4g
=25	=25	=25	=25
0D	1B-y	1d	1f
.	1A	1r	2r
.	.	.	[2a
=26	=26	=26	=26
0r	0r	1d	2a]
.	.	.	2a
.	.	2d	2b-y
.	.	2e	[2cc
=27	=27	=27	=27
0r	0r	2.f	4cc]
.	.	.	4b-y
.	.	.	4a
.	.	4e	4g
.	.	2f	2a
.	.	[2g	[2b-y
=28	=28	=28	=28
0r	1r	4g]	4b-]
.	.	4f	4cc
.	.	4e	2.dd
.	.	4d	.
.	2r	1e	.
.	.	.	8cc#iL
.	.	.	8bniJ
.	[2A	.	2cc#i
=29	=29	=29	=29
1D	2A]	1d	1dd
.	2A	.	.
2D	2B-y	1r	1r
2E	[2c	.	.
=30	=30	=30	=30
2.F	4c]	0r	0r
.	4B-y	.	.
.	4A	.	.
4E	4G	.	.
2F	2A	.	.
[2G	[2B-y	.	.
=31	=31	=31	=31
4G]	4B-]	0r	0r
4F	4c	.	.
4E	2.d	.	.
4D	.	.	.
1E	.	.	.
.	8c#iL	.	.
.	8BniJ	.	.
.	2c#i	.	.
=32	=32	=32	=32
0D	1d	1r	2r
.	.	.	1a
.	1r	1d	.
.	.	.	2a
=33	=33	=33	=33
0r	2r	2d	2b-y
.	1A	2e	2.cc
.	.	2.f	.
.	.	.	4b-y
.	2A	.	4a
.	.	4e	4g
=34	=34	=34	=34
0r	2B-y	2d	2f
.	2.c	2.e	2a
.	.	.	2g
.	4B-y	4d	.
.	4A	2e	[2cc
.	4G	.	.
=35	=35	=35	=35
0r	2A	1f	2cc]
.	2B-y	.	2dd
.	2c	2e	2ee
.	2d	[2d	[2ff
=36	=36	=36	=36
1r	1B-y	4d]	4ff]
.	.	4e	4ee
.	.	4f	1dd
.	.	4d	.
2r	1A	1e	.
2A	.	.	2cc#i
=37	=37	=37	=37
2.B-y	1r	1d	1dd
4c	.	.	.
2d	2r	1G	1r
2B-y	2d	.	.
=38	=38	=38	=38
2c	2.e	2r	2r
2A	.	2c	2a
.	4f	.	.
1G	2g	2.d	2.b-y
.	2G	.	.
.	.	4e	4cc
=39	=39	=39	=39
2F	2A	2f	2dd
2G	2B-y	2d	2b-y
2C	2G	2e	2cc
2D	2F	2f	2a
=40	=40	=40	=40
1E-X	2.B-y	2g	1g
.	.	2G	.
.	4c	.	.
2D	2d	2B-y	1f
2F	[2c	[2A	.
=41	=41	=41	=41
1E-X	4c]	4A]	2.g
.	8B-yL	4G	.
.	8AJ	.	.
.	4B-y	1g	.
.	4c	.	4a
1D	1d	.	2b-y
.	.	2f	[2a
=42	=42	=42	=42
1r	2c	2e	4a]
.	.	.	4g
.	2B-y	1d	1g
2r	1A	.	.
2A	.	2c	2f#i
=43	=43	=43	=43
2.B-y	1G	1d	0g
4c	.	.	.
2d	2r	1G	.
2B-y	2d	.	.
=44	=44	=44	=44
2c	2.e	2r	2r
2A	.	2c	2a
.	4f	.	.
1G	2g	2.d	2.b-y
.	2G	.	.
.	.	4e	4cc
=45	=45	=45	=45
2F	2A	2f	2dd
2G	2B-y	2d	2b-y
2C	2G	2e	2cc
2D	2F	2f	2a
=46	=46	=46	=46
1E-X	2.B-y	2g	1g
.	.	2G	.
.	4c	.	.
2D	2d	2B-y	1f
2F	[2c	[2A	.
=47	=47	=47	=47
1E-i	4c]	4A]	2.g
.	8B-yL	4G	.
.	8AJ	.	.
.	4B-y	1g	.
.	4c	.	4a
2.D	1d	.	2b-y
.	.	[2f	[2a
4Eny	.	.	.
=48	=48	=48	=48
2F	2c	2f]	4a]
.	.	.	4g
2G	2B-y	2e	1g
1D	1A	1d	.
.	.	.	2f#i
=	=	=	=
00G	00G	00d	00g
=||	=||	=||	=||
*M2/1	*M2/1	*M2/1	*M2/1
*met(C|)	*met(C|)	*met(C|)	*met(C|)
!!section: Secunda pars: Heri enim Rex
!!!OMD: Secunda pars: Heri enim Rex
0G	1d	0g	0b-y
.	[1d	.	.
=49	=49	=49	=49
1G	2d]	1g	1b-y
.	4e	.	.
.	4d	.	.
1G	2e	1g	1b-y
.	[2d	.	.
=50	=50	=50	=50
1D	2d]	1f	1a
.	4c	.	.
.	4B-y	.	.
1D	2A	1f	1a
.	[2d	.	.
=51	=51	=51	=51
0G	4d]	1d	0b-y
.	4c	.	.
.	4B-y	.	.
.	4A	.	.
.	2B-y	1e	.
.	2B-y	.	.
=52	=52	=52	=52
0F	0c	1f	1a
.	.	[1a	[1cc
=53	=53	=53	=53
1.F	1.f	2a]	2cc]
.	.	2a	2cc
.	.	[1a	[1cc
2F	2f	.	.
=54	=54	=54	=54
1F	1f	1a]	1cc]
1G	1d	2.g	1b-y
.	.	4f	.
=55	=55	=55	=55
1A	2c	2e	2.a
.	2.f	2c	.
.	.	.	4g
[1B-y	.	2d	1f
.	4e	.	.
.	4d	4B-y	.
.	4c	4c	.
=56	=56	=56	=56
2B-]	2B-y	4d	2g
.	.	4e	.
2A	1c	1f	2a
1G	.	.	1b-y
.	2B-y	2e	.
=57	=57	=57	=57
0F	1.c	[0f	1a
.	.	.	2r
.	4B-y	.	2cc
.	4A	.	.
=58	=58	=58	=58
0r	2.B-y	1f]	1dd
.	4A	.	.
.	1F	2r	2cc
.	.	2f	[2dd
=59	=59	=59	=59
0r	0r	1g	2dd]
.	.	.	2ee
.	.	2f	2ff
.	.	[2g	2dd
=60	=60	=60	=60
0r	0r	2g]	2ee
.	.	2a	1ff
.	.	2b-y	.
.	.	2g	4ee
.	.	.	4dd
=61	=61	=61	=61
0r	0r	2a	2cc
.	.	1b-y	1dd
.	.	4a	4cc
.	.	4g	4b-y
=62	=62	=62	=62
0r	0r	2f	2a
.	.	2g	2b-y
.	.	2e	2.cc
.	.	[2f	.
.	.	.	4b-y
=63	=63	=63	=63
0r	1r	4f]	4a
.	.	4e	4g
.	.	4d	2.b-y
.	.	4c	.
.	2r	2d	.
.	.	.	4a
.	2c	2A	[2a
=64	=64	=64	=64
1r	1d	1B-y	2a]
.	.	.	2g
2r	2c	1A	1a
2F	[2d	.	.
=65	=65	=65	=65
1G	2d]	0r	0r
.	2e	.	.
2F	2f	.	.
[2G	2d	.	.
=66	=66	=66	=66
2G]	2e	0r	0r
2A	1f	.	.
2B-y	.	.	.
2G	4e	.	.
.	4d	.	.
=67	=67	=67	=67
2A	2c	0r	0r
1B-y	1d	.	.
4A	4c	.	.
4G	4B-y	.	.
=68	=68	=68	=68
2F	2A	0r	0r
2G	2B-y	.	.
2A	4F	.	.
.	4G	.	.
4F	4A	.	.
4G	4B-y	.	.
=69	=69	=69	=69
4A	4c	1r	0r
4F	4d	.	.
2.G	2.e	.	.
.	.	2r	.
4F	4d	.	.
4E	[2d	2g	.
4D	.	.	.
=70	=70	=70	=70
1E	2d]	2g	1r
.	2c#i	2g	.
[1D	[1d	[1f	2r
.	.	.	2dd
=71	=71	=71	=71
1D]	1d]	2f]	2dd
.	.	2d	2dd
1r	1A	2e	2cc
.	.	2f	2a
=72	=72	=72	=72
2r	1r	2g	2.b-y
2G	.	2e	.
.	.	.	4cc
2G	2r	1d	2dd
2G	2d	.	2b-y
=73	=73	=73	=73
2F	2d	1r	1a
2D	2d	.	.
2.E	2.c	2r	1r
.	.	2g	.
4F	4A	.	.
=74	=74	=74	=74
2G	2B-y	2g	0r
2E	2c	2g	.
1D	2d	2f	.
.	2B-y	2d	.
=75	=75	=75	=75
1r	1A	2e	2r
.	.	2f	2a
1G	1r	2g	2.b-y
.	.	2e	.
.	.	.	4cc
=76	=76	=76	=76
2G	2r	4d	2dd
.	.	4c	.
2G	2d	4d	2b-y
.	.	4e	.
2F	2d	1f	2a
2D	2d	.	2f
=77	=77	=77	=77
2E	2c	2e	2g
2F	2A	2c	2.a
2G	2B-y	2.B-y	.
.	.	.	4g
2E	2c	.	2g
.	.	8AL	.
.	.	8GJ	.
=78	=78	=78	=78
1D	2d	2A	2.f
.	2B-y	1d	.
.	.	.	8eL
.	.	.	8dJ
2r	1A	.	1e
2A	.	2c#i	.
=79	=79	=79	=79
2.B-y	1r	1d	1d
4c	.	.	.
2d	2r	1G	1r
2B-y	2d	.	.
=80	=80	=80	=80
2c	2.e	2r	2r
2A	.	2c	2a
.	4f	.	.
1G	2g	2.d	2.b-y
.	2G	.	.
.	.	4e	4cc
=81	=81	=81	=81
2F	2A	2f	2dd
2G	2B-y	2d	2b-y
2C	2G	2e	2cc
2D	2F	2f	2a
=82	=82	=82	=82
1E	2.B-y	2g	1g
.	.	2G	.
.	4c	.	.
2D	2d	2B-y	1f
2F	[2c	[2A	.
=83	=83	=83	=83
1E	4c]	4A]	2.g
.	8B-yL	4G	.
.	8AJ	.	.
.	4B-y	1g	.
.	4c	.	4a
2.D	1d	.	2b-y
.	.	[2f	[2a
4E	.	.	.
=84	=84	=84	=84
2F	2c	2f]	4a]
.	.	.	4g
2G	2B-y	2e	1g
1D	1A	1d	.
.	.	.	2f#i
=85	=85	=85	=85
0G	0G	1d	1g
.	.	2r	2r
.	.	2d	2dd
=86	=86	=86	=86
1r	1r	2f	2cc
.	.	2g	2b-y
2r	2r	2d	1a
2D	2d	[2a	.
=87	=87	=87	=87
2F	2c	2a]	2r
2G	2B-y	2g	1dd
2D	1A	2f	.
2A	.	4e	2cc
.	.	4f	.
=88	=88	=88	=88
2G	1d	4g	2b-y
.	.	4e	.
2F	.	2f	2.a
2E	2c	2r	.
.	.	.	4g
[2G	2B-y	2d	4g
.	.	.	8fL
.	.	.	8gJ
=89	=89	=89	=89
2G]	2A	2e	1a
2F	2d	2f	.
2E	2c	4g	2r
.	.	4e	.
[2D	2B-y	[2f	[2dd
=90	=90	=90	=90
4D]	1A	4f]	2dd]
4E	.	4g	.
2F	.	2a	2cc
2G	1d	2g	2b-y
2D	.	[2f	[2a
=91	=91	=91	=91
2F	2c	4f]	4a]
.	.	4e	4g
2G	2B-y	4d	1g
.	.	4c	.
1D	1A	1d	.
.	.	.	2f#i
=92	=92	=92	=92
00Gl	00Gl	00dl	00gl
==	==	==	==
*-	*-	*-	*-
!!!system-decoration: [*]
!!!RDF**kern: i = editorial accidental
!!!RDF**kern: l = terminal long
!!!ENC: Benjamin Ory
!!!END: 2021/6/4
!!!EED: Benjamin Ory
!!!EEV: 2021/06/04
!!!YEC: Copyright 2021 Benjamin Ory, All Rights Reserved
!!!ONB: Translated from MusicXML on 2021/06/04
